!!!COM: Leoš [Leo Eugen] Janáček
!!!OTL: [T146_Jan-w29p6m37-43]
**kern	**kern	**dynam	**kern	**dynam
*grp:A	*grp:B	*grp:B	*grp:B	*grp:B
*part2	*part2	*part2	*part1	*part1
*staff3	*staff2	*staff2	*staff1	*staff1
*I"Piano	*I"Piano	*I"Piano	*I"Violoncello	*I"Violoncello
*I'Pno.	*	*	*I'Vc.	*
!!pagebreak:original
*clefF4	*clefG2	*	*clefF4	*
*k[f#]	*k[f#]	*	*k[f#]	*
*G:	*G:	*	*G:	*
*M3/8	*M3/8	*	*M3/8	*
=1	=1	=1	=1	=1
*	*^	*	*	*
!	!	!	!	!LO:TX:t=[quarter-dot]=132	!
!	!	!	!	!LO:TX:a:B:t=A tempo	!
4.EE 4.BB	8eeL	4.g 4.b	f	8%3r	.
.	(8ee	.	.	.	.
.	8cc#XJ)	.	.	.	.
=2	=2	=2	=2	=2	=2
[4.ETT	(8cc#XL	4.e 4.g	.	8EL	f
.	8b)	.	.	8E	.
.	8bJ	.	.	8C#XJ	.
=3	=3	=3	=3	=3	=3
4.ETTT]	8eeL	4.g 4.b	.	(8C#XL	.
.	(8ee	.	.	8BB)	.
.	8cc#XJ)	.	.	8BBJ	.
=4	=4	=4	=4	=4	=4
4E	4e^ 4g 4b	8ryy	.	8EL	.
.	.	8ryy	.	8E	.
8E	8b^	8eL 8g	.	8C#XJ	.
=5	=5	=5	=5	=5	=5
4.EE 4.BB	8bL	8eJ 8g	.	4BB^	.
.	(8ee	4e 4g	.	.	.
.	8cc#XJ)	.	.	8BB^	.
=6	=6	=6	=6	=6	=6
[4.ETT	(8cc#XL	4.e 4.g	.	8EL	.
.	8b)	.	.	8E	.
.	8bJ	.	.	8C#XJ	.
=7	=7	=7	=7	=7	=7
4.ETTT]	8bL	4.B 4.e	.	(8C#XL	.
.	(8b	.	.	8BB)	.
.	8gJ)	.	.	8BBJ	.
*	*v	*v	*	*	*
=	=	=	=	=
*-	*-	*-	*-	*-
!!!system-decoration: s1[({(s2,s3)})]
